!!!id: EG070
!!!page: 141-144
!!!COM: Anonymous
!!!LYR: Anonymous
!!!PTL@@FR: Chansons Populaires du Canada
!!!OTL@@FR: Le P'tit bois d'l'Ail
!!!PUB: G. E. Desbarats
!!!PDT: 1865
!!!AGN-Laforte:
!!!AGN-type:
!!!AGN-rime:
**kern	**text	**text	**text	**text	**text	**text	**text	**text
*clefG2	*	*	*	*	*	*	*	*
*k[f#]	*	*	*	*	*	*	*	*
*G:	*	*	*	*	*	*	*	*
*M3/8	*	*	*	*	*	*	*	*
*	*v:1	*v:2	*v:3	*v:4	*v:5	*v:6	*v:7	*v:8
*	*pline:1Ha	*pline:5Ha	*pline:9Ha	*pline:13Ha	*pline:17Ha	*pline:21Ha	*pline:25Ha	*pline:29Ha
8d	Qui	Par	J'y	Ah!	Re-	J'n'at-	Va	On
=1	=1	=1	=1	=1	=1	=1	=1	=1
4g	veut	un	al-	oui,	-ve-	-tends	t'en	dit
8a	sa-	di-	-lu-	vrai-	-nons	pas	fai-	que
=2	=2	=2	=2	=2	=2	=2	=2	=2
4b	-voir	-manche	-mai	-ment,	au	qu'on	-re	je
8cc	la	au	ma	dit-	bon-	me	tes	suis
=3	=3	=3	=3	=3	=3	=3	=3	=3
*^	*	*	*	*	*	*	*	*
4dd\	8ddL/	lis-	soir	pi-	el-	-hom-	l'di-	plain-	fier,
.	8ccJ/	.	.	.	.	.	.	.	.
*v	*v	*	*	*	*	*	*	*	*
8b	-te	.	-pe	-le,	-me	-se	-tes	.
=4	=4	=4	=4	=4	=4	=4	=4	=4
*	*pline:1Hb	*pline:5Hb	*pline:9Hb	*pline:13Hb	*pline:17Hb	*pline:21Hb	*pline:25Hb	*pline:29Hb
4.dd	Des	M'en	Comm'	A-	Qu'est	Pour	À	I-
=5	=5	=5	=5	=5	=5	=5	=5	=5
4ee	i-	al-	c'é-	-vec	dans	la	mon-	-vrogn[e]
8cc	-vrogn'	-lant	-tait	un	son	se-	-sieur	et
!!LO:PB:g=original
=6	=6	=6	=6	=6	=6	=6	=6	=6
4b	à	pro-	la	grand	lit	-con-	le	pa-
8cc	pré-	-me-	fa-	plai-	cou-	-de	Cu-	-res-
=7	=7	=7	=7	=7	=7	=7	=7	=7
[4.dd	-sent?	-ner,	-çon,	-sir.	-ché,	fois,	-ré;	-seux.
=8	=8	=8	=8	=8	=8	=8	=8	=8
8dd]	.	.	.	.	.	.	.	.
8r	.	.	.	.	.	.	.	.
*	*pline:2Ha	*pline:6Ha	*pline:10Ha	*pline:14Ha	*pline:18Ha	*pline:22Ha	*pline:26Ha	*pline:30Ha
8b	C'est	Et	Di-	Tu	Cri-	Et	Dis-	Du
=9	=9	=9	=9	=9	=9	=9	=9	=9
4g	dans	moi	-sant	es	-ant	je	lui	vin
8a	le	et	quel-	ve-	à	dis	que	dans
=10	=10	=10	=10	=10	=10	=10	=10	=10
4b	P'tit	puis	-que	-nu	hau-	à	sa	ma
8cc	bois	Fran-	pa-	ce	-te	Fran-	pa-	bou-
=11	=11	=11	=11	=11	=11	=11	=11	=11
*^	*	*	*	*	*	*	*	*
4dd\	8ddL/	d'Ail-	-çois,	-ro-	soir	voix:	-çois:	-ro-	-tei-
.	8ccJ/	.	.	.	.	.	.	.	.
*v	*v	*	*	*	*	*	*	*	*
8b	-le	.	-les	.	.	.	-iss[e]	-lle
*	*pline:2Hb	*pline:6Hb	*pline:10Hb	*pline:14Hb	*pline:18Hb	*pline:22Hb	*pline:26Hb	*pline:30Hb
!!LO:PB:g=original
=12	=12	=12	=12	=12	=12	=12	=12	=12
4.dd	Yen	Tous	Aux	C'est	"Li-	T'en	Est	J'en
=13	=13	=13	=13	=13	=13	=13	=13	=13
4ee	a-	deux	gens	seul'-	-ma,	viens-	tout	ai
8cc	t-un	de	de	-ment	va	tu	bou-	ben
=14	=14	=14	=14	=14	=14	=14	=14	=14
4b	ré-	com-	la	pour	te	quand	-le-	quand
8cc	-gi-	-pa-	mai-	en	cou-	et	-ver-	je
=15	=15	=15	=15	=15	=15	=15	=15	=15
[4.dd	-ment;	-gnée,	-son.	rire;	-cher!	moi	sée;	veux;
=16	=16	=16	=16	=16	=16	=16	=16	=16
8dd]	.	.	.	.	.	(avec moi)?	.	.
8r	.	.	.	.	.	.	.	.
*	*pline:3Ha	*pline:7Ha	*pline:11Ha	*pline:15Ha	*pline:19Ha	*pline:23Ha	*pline:27Ha	*pline:31Ha
==17	==17	==17	==17	==17	==17	==17	==17	==17
4.dd	Et	Chez	Je	Tu	Les	Bon-	Dis-	On
=18	=18	=18	=18	=18	=18	=18	=18	=18
4b	moi	le	dis	es	gens	-soir	lui	ne
8dd	le	bon-	à	trop	de	ma	que	voit
!!LO:PB:g=original
=19	=19	=19	=19	=19	=19	=19	=19	=19
4ee	ca-	-homm'	Dé-	in-	la	Dé-	sa	point
8dd	-pi-	Gau-	-li-	-fi-	cam-	-li-	pa-	de
=20	=20	=20	=20	=20	=20	=20	=20	=20
4cc	-tai-	-thier	-ma:	-dè'-	-pa-	-ma,	-ro-	grais-
8a	-ne,	.	.	-e	-gne.	.	-iss[e]	-se
*	*pline:3Hb	*pline:7Hb	*pline:11Hb	*pline:15Hb	*pline:19Hb	*pline:23Hb	*pline:27Hb	*pline:31Hb
=21	=21	=21	=21	=21	=21	=21	=21	=21
4.cc	Fran-	Nous	Me	Pour	Des	Je	Est	Fi-
=22	=22	=22	=22	=22	=22	=22	=22	=22
4b	-çois	a-	per-	me	vill[e]'	fi-	sans	-ger
8b	Je-	-vons	-met-	par-	et	-le	des-	sur
=23	=23	=23	=23	=23	=23	=23	=23	=23
*^	*	*	*	*	*	*	*	*
4b\	8bL/	-neau,	'té	-tri-	-ler	des	mon	-sus	mon
.	8aJ/	.	.	.	.	.	.	.	.
*v	*v	*	*	*	*	*	*	*	*
8g	mar-	vei-	-ez-	d'a-	fau-	che-	des-	ca-
=24	=24	=24	=24	=24	=24	=24	=24	=24
4a	-chand;	-ller;	vous	-mour;	-bourgs,	-min!	-sous,	=pot;
8r	.	.	.	.	.	.	.	.
*	*pline:4Ha	*pline:8Ha	*pline:12Ha	*pline:16Ha	*pline:20Ha	*pline:24Ha	*pline:28Ha	*pline:32Ha
=25	=25	=25	=25	=25	=25	=25	=25	=25
4.dd	E-	Je	De	T'as	Re-	Je	Que	Il
!!LO:PB:g=original
=26	=26	=26	=26	=26	=26	=26	=26	=26
4b	-douard	vais	m'é-	ta	-ti-	m'en	dans	est
8cc	y	vous	-loi-	p'tit'	-rez-	al-	le	tou-
=27	=27	=27	=27	=27	=27	=27	=27	=27
[4.dd	porte	ra-	-gner	Jé-	vous	-lais	P'tit	-jours
=28	=28	=28	=28	=28	=28	=28	=28	=28
4dd]	.	.	.	.	.	.	.	.
8dd	en-	-con-	des	-ré-	d'i-	nu-	bois	ben
=29	=29	=29	=29	=29	=29	=29	=29	=29
4.b	-sei-	-ter	aut-	-mi-	-ci	tê-	d'Ail-	net-
=30	=30	=30	=30	=30	=30	=30	=30	=30
4g	-gne,	.	-res	-e	.	-te,	-le	te
*	*pline:4Hb	*pline:8Hb	*pline:12Hb	*pline:16Hb	*pline:20Hb	*pline:24Hb	*pline:28Hb	*pline:32Hb
8a	Au	Le	Pour	Que	Car	Mon	On	Quoi-
=31	=31	=31	=31	=31	=31	=31	=31	=31
4b	bout	tour	m'ap-	tu	il	cha-	n'y	-qu'il
8cc	du	qui	-pro-	ai-	fait	-peau	voit	ne
=32	=32	=32	=32	=32	=32	=32	=32	=32
4a	ré-	m'est ar-	-cher	-mes	bien-	à	qu'des	soit
8b/	-gi-	-ri	de	tou-	-tôt	la	gens	pas
!!LO:PB:g=original
=33	=33	=33	=33	=33	=33	=33	=33	=33
[4.g	-ment.	-vé.	vous?	-jours.	jour!"	main.	soûls.	beau.
=34	=34	=34	=34	=34	=34	=34	=34	=34
8g]	.	.	.	.	.	.	.	.
8r	.	.	.	.	.	.	.	.
==	==	==	==	==	==	==	==	==
8r	.	.	.	.	.	.	.	.
==	==	==	==	==	==	==	==	==
*-	*-	*-	*-	*-	*-	*-	*-	*-
!!!RWG: Upper voice beamed eighth notes should be grace notes, but using "qq" didn't seem to work (unless lower voice was turned to grace note as well)
!!!RWG: Quarter note in m.24 presumed 'a' but somewhat unclear
!!!RWG: Too many syllables to fit # of notes (last line of V2)
!!!RWG: "Echo" after "et moi" – "(avec moi)" – at the end of V6, line 4, but unsure of how to write this, so for now included on subsequent tied note
!!!EED-1: Samuel Boone
!!!EEV-1: 2026/03/15
